public/icons/star.svg

<svg width="24" height="24" viewBox="0 0 24 24" fill="none" xmlns="http://www.w3.org/2000/svg">
    <path d="M4.88295 14.9773L3.8525 21.307C3.80272 21.6036 3.83819 21.9083 3.95478 22.1856C4.07137 22.4629 4.26429 22.7014 4.5111 22.8733C4.75796 23.0392 5.04512 23.1351 5.3421 23.1509C5.63908 23.1667 5.93479 23.1017 6.19785 22.963L11.5448 20.0328L16.8351 22.963C17.0976 23.1089 17.3959 23.1778 17.6957 23.1618C17.9956 23.1458 18.2849 23.0457 18.5304 22.8728C18.7759 22.6998 18.9677 22.4612 19.0838 22.1843C19.1999 21.9073 19.2355 21.6033 19.1866 21.307L18.1745 14.9198L22.5662 10.4057C22.7711 10.1951 22.914 9.93228 22.9794 9.6459C23.0448 9.35953 23.0301 9.06068 22.9369 8.78211C22.8437 8.50355 22.6756 8.25601 22.451 8.06664C22.2264 7.87726 21.9541 7.75335 21.6638 7.70849L15.6183 6.75322L12.9655 1.0852C12.8372 0.809966 12.6329 0.577081 12.3768 0.41391C12.1206 0.25074 11.8232 0.164063 11.5195 0.164062C11.2158 0.164063 10.9184 0.25074 10.6623 0.41391C10.4061 0.577081 10.2019 0.809966 10.0735 1.0852L7.3732 6.78925L1.37528 7.70926C1.08497 7.75412 0.812616 7.87803 0.588057 8.0674C0.363499 8.25678 0.195408 8.50431 0.102205 8.78288C0.00900298 9.06145 -0.00571348 9.3603 0.0596689 9.64667C0.125051 9.93305 0.268009 10.1959 0.472875 10.4064L4.88295 14.9773Z" fill="currentColor"/>
</svg>

<svg width="24" height="24" fill="none" xmlns="http://www.w3.org/2000/svg"><path d="m4.883 14.977-1.03 6.33a1.589 1.589 0 0 0 .658 1.566 1.647 1.647 0 0 0 1.687.09l5.347-2.93 5.29 2.93a1.596 1.596 0 0 0 2.352-1.656l-1.013-6.387 4.392-4.514a1.6 1.6 0 0 0-.902-2.698l-6.046-.955-2.652-5.668a1.595 1.595 0 0 0-2.893 0l-2.7 5.704-5.998.92a1.6 1.6 0 0 0-.902 2.697l4.41 4.571Z" fill="currentColor"/></svg>
